X: 36599
T: Shamrock, The
R: barndance
M: 4/4
K: Dmajor
AG|:F2Ad fagf|e2B2 B2ef|1 gfge cAde|(3fafd2 A2G2:|2 gfge cAfe|d6fg||
|:afba fagf|e2B2 B2ef|1 gfge cAdf|a6fg:|2 gfge cAfe|d6||

